wp-content/themes/hatch/dist/asset/img/icon-external-link.svg

<?xml version="1.0" encoding="UTF-8" standalone="no"?>
<svg width="16px" height="16px" viewBox="0 0 16 16" version="1.1" xmlns="http://www.w3.org/2000/svg" xmlns:xlink="http://www.w3.org/1999/xlink" xmlns:sketch="http://www.bohemiancoding.com/sketch/ns">
    <!-- Generator: Sketch 3.2.2 (9983) - http://www.bohemiancoding.com/sketch -->
    <title>Shape</title>
    <desc>Created with Sketch.</desc>
    <defs></defs>
    <g id="Page-1" stroke="none" stroke-width="1" fill="none" fill-rule="evenodd" sketch:type="MSPage">
        <path d="M15.9985,0 L11.99875,0.499968752 L13.2176738,1.71889257 L8.46797069,6.46859571 L7.93650391,7.0000625 L8.9989375,8.06249609 L9.53040429,7.53102931 L14.2801074,2.78132617 L15.4990312,4.00024998 L15.999,0.000499968752 L15.9985,0 Z M0.999437473,1.49990626 C0.757952565,1.49990626 0.475970189,1.58590088 0.280482407,1.78138866 C0.0849946253,1.97687645 -0.001,2.25835885 -0.001,2.50034373 L-0.001,14.9995625 C-0.001,15.2410474 0.0849946253,15.5230298 0.280482407,15.7185176 C0.475970189,15.9140054 0.757452597,16 0.999437473,16 L13.4986563,16 C13.7401412,16 14.0221236,15.9140054 14.2176113,15.7185176 C14.4130991,15.5230298 14.4990937,15.2415474 14.4990937,14.9995625 L14.4990937,7.50003125 L12.9991875,7.50003125 L12.9991875,14.4995938 L1.49990619,14.4995938 L1.49990619,3.00031248 L8.99943747,3.00031248 L8.99943747,1.50040622 L0.999937441,1.50040622 L0.999437473,1.49990626 Z" id="Shape" fill="#252C33" sketch:type="MSShapeGroup"></path>
    </g>
</svg>

<svg width="16" height="16" xmlns="http://www.w3.org/2000/svg"><path d="M15.998 0l-4 .5 1.22 1.219-4.75 4.75L7.937 7l1.062 1.062.531-.531 4.75-4.75 1.219 1.22.5-4V0zM1 1.5a1.04 1.04 0 00-.719.281 1.035 1.035 0 00-.281.72V15c0 .241.086.523.281.719.196.195.477.281.72.281H13.5c.241 0 .523-.086.719-.281.195-.196.281-.477.281-.72V7.5H13v7H1.5V3H9V1.5H1z" fill="#252C33" fill-rule="evenodd"/></svg>
